!!!OTL: HAT UNS NICHT MAHOMET SCHAENDLICH BETROGEN
!!!ARE: Europa, Mitteleuropa, Deutschland, Schlesien
!!!SCT: B0348
!!!YEM: Copyright 1995, estate of Helmut Schaffrath.
**kern
*ICvox
*Ivox
*M3/8
*k[b-e-]
*g:
=1
{8.g
16f#
8g
=2
8.dd
16cc
8dd
=3
8ee-
8cc
8dd
=4
4b-
8a}
=5
{8.b-
16a
8g
=6
8b-
8a
16g
16a
=7
8b-
8b-
8cc
=8
4.dd}
=9
{8.g
16f#
8g
=10
8.dd
16cc
8dd
=11
8ee-
8cc
8dd
=12
4b-
8a}
=13
{8.b-
16a
8g
=14
8b-
8a
16g
16a
=15
8b-
8b-
8cc
=16
4dd}
{8cc
=17
8.dd
16cc
8dd
=18
8.dd
16ee-
8ffn
=19
8.cc
16b-
8cc
=20
4cc}
{8dd
=21
8.b-
16a
8b-
=22
8.b-
16cc
8dd
=23
8.a
16g
8a
=24
4a}
{8a
=25
8b-
8a
8r
=26
4r
8a
=27
8b-
8a
8r
=28
4r}
{8dd
=29
8ee-
8dd
8cc
=30
8b-
8a
8g
=31
8.a
16g
8a
=32
4g
8r}
==
!!!AGN: Trink - Lied, national, chauvinistisch
!!!ONB: ESAC (Essen Associative Code) Database: BOEHME
!!!AMT: simple triple
!!!AIN: vox
!!!EED: Helmut Schaffrath
!!!EEV: 1.0
*-
